icon/CC0/book/individual/OCAL/scalable/book_07.svg

<?xml version="1.0" encoding="UTF-8" standalone="no"?>
<svg xmlns:rdf="http://www.w3.org/1999/02/22-rdf-syntax-ns#" xmlns="http://www.w3.org/2000/svg" height="534.23" viewBox="0 0 799.99999 534.23048" width="800" version="1.1" xmlns:cc="http://creativecommons.org/ns#" xmlns:xlink="http://www.w3.org/1999/xlink" xmlns:dc="http://purl.org/dc/elements/1.1/">
<defs>
<linearGradient id="a" x2="226.43" gradientUnits="userSpaceOnUse" x1="194.29">
<stop stop-color="#fff" offset="0"/>
<stop stop-color="#fff" stop-opacity="0" offset="1"/>
</linearGradient>
<linearGradient id="c" y2="1719" gradientUnits="userSpaceOnUse" y1="1726.7" gradientTransform="matrix(1.9585 0 0 .51059 0 280)" x2="116.15" x1="121.74">
<stop stop-color="#ebebe2" offset="0"/>
<stop stop-color="#bcbc8e" offset="1"/>
</linearGradient>
<linearGradient id="b" y2="776.56" gradientUnits="userSpaceOnUse" y1="794.37" gradientTransform="matrix(.74743 0 0 1.3379 .25 132)" x2="286.71" x1="277.49">
<stop stop-color="#fdf064" offset="0"/>
<stop stop-color="#c68200" offset="1"/>
</linearGradient>
<linearGradient id="s" y2="1776.3" xlink:href="#a" y1="1700.8" gradientTransform="matrix(13.288 0 0 5.0944 -1573.8 -8691.5)" x2="164.79" x1="143.16"/>
<linearGradient id="r" xlink:href="#b" y1="1225.1" gradientTransform="matrix(8.2276 0 0 8.2276 -1573.8 -9843.4)" x2="0" y2="1200.7"/>
<linearGradient id="q" y2="1634.5" xlink:href="#c" y1="1696.2" gradientTransform="matrix(1.5147 0 0 .66019 0 140)" x2="157.33" x1="140.26"/>
<linearGradient id="p" y2="1669.3" xlink:href="#a" y1="1674.5" gradientTransform="matrix(12.462 0 0 5.4318 -1573.8 -8691.5)" x2="147.69" x1="140.18"/>
<linearGradient id="o" y2="985.93" xlink:href="#b" spreadMethod="reflect" y1="1000.9" gradientTransform="matrix(7.4647 0 0 9.0685 -1573.8 -8691.5)" x2="226.88" x1="223.66"/>
<linearGradient id="n" y2="1247" xlink:href="#a" y1="1225.9" gradientTransform="matrix(8.2276 0 0 8.2276 -1573.8 -9843.4)" x2="204.62" x1="204.58"/>
<linearGradient id="m" y2="1493.9" xlink:href="#a" y1="1437.3" gradientTransform="matrix(11.208 0 0 6.0398 -1573.8 -8691.5)" x2="182.97" x1="196.65"/>
<linearGradient id="e" y2="1667" xlink:href="#a" x2="167.52" gradientTransform="matrix(12.462 0 0 5.4318 -1573.8 -8691.5)" y1="1674.5" x1="175.51"/>
<linearGradient id="d" xlink:href="#c" gradientTransform="matrix(8.2276 0 0 8.2276 -1573.8 -9843.4)" x2="286.49" x1="199.82"/>
<linearGradient id="f" y2="1082.9" spreadMethod="reflect" gradientUnits="userSpaceOnUse" x2="211.85" gradientTransform="matrix(9.6757 0 0 6.9965 -1573.8 -7539.6)" y1="1137.6" x1="205.99">
<stop stop-color="#895356" offset="0"/>
<stop stop-color="#4c1f1b" offset="1"/>
</linearGradient>
</defs>
<path d="m67.06 179.5 437.3-174.92 291.53 174.92v116.61l-437.3 233.22-291.53-233.22v-116.61z" stroke="#000" stroke-width="8.2276" fill="url(#f)"/>
<path id="g" d="m790.18 191.01-431.94 220.39-285.03-210.1-2.942 73.46 289.44 230.67 427.83-226.26l2.6445-88.151z" stroke-opacity=".19608" stroke="#000" stroke-width="16.455" fill="url(#d)"/>
<path opacity=".5" d="m101.78 184.43 401.43-165.81 264.7 162.9c-51.39 26.18-127.87 62.791-174.53 69.813-209.27 31.493-142.54-107.63-491.61-66.904z" fill="url(#s)"/>
<path d="m501.64 36.336-127.53 53.479 232.43 141.92 123.42-53.48-228.32-141.92z" stroke-opacity=".4" stroke="#000" stroke-width="8.2276" fill="url(#r)"/>
<use stroke-opacity=".19608" xlink:href="#g" height="274.26697" width="308.90109" stroke="#000000" y="0" x="0" fill="url(#q)"/>
<path d="m790.18 191.01-431.95 220.38 1.4693 94.025 427.84-226.26 2.6445-88.151z" fill="url(#e)"/>
<path d="m358.24 411.51-285.03-210.1-2.942 73.46 289.44 230.67-1.47-94.02z" fill="url(#p)"/>
<path stroke-linejoin="round" d="m100.38 253.54 82.86 68.498c-34.75 11.57-40.71 138.32-116.61 145.77 12.911-43.37 13.478-68.23 14.045-101.32-20.003 12.16-52.346 22.27-72.348 13.86 55.369-40.21 61.374-119.5 92.063-126.8z" stroke="#000" stroke-width="8.228" fill="url(#o)"/>
<path d="m92.237 273.29c-7.758 5.255-17.159 36.376-28.31 58.678 26.18-25.696 35.785 58.844 61.087 56.723 14.989-1.2564 24.024-35.639 31.645-56.017 7.0566-18.868-52.348-67.562-64.422-59.384z" fill="url(#n)"/>
<path d="m500.57 47.855-102.84 42.166c98.386-30.168 154.3 48.895 210.83 94.617 39.145 31.662 122.04-7.8845 64.792-33.939l-172.78-102.84z" fill="url(#m)"/>
</svg>

<?xml version="1.0" encoding="UTF-8" standalone="no"?>
<svg
   xmlns:dc="http://purl.org/dc/elements/1.1/"
   xmlns:cc="http://creativecommons.org/ns#"
   xmlns:rdf="http://www.w3.org/1999/02/22-rdf-syntax-ns#"
   xmlns:svg="http://www.w3.org/2000/svg"
   xmlns="http://www.w3.org/2000/svg"
   xmlns:xlink="http://www.w3.org/1999/xlink"
   xmlns:sodipodi="http://sodipodi.sourceforge.net/DTD/sodipodi-0.dtd"
   xmlns:inkscape="http://www.inkscape.org/namespaces/inkscape"
   height="171.85858"
   viewBox="0 0 256 171.85874"
   width="256"
   version="1.1"
   id="svg52"
   sodipodi:docname="book_07.svg"
   inkscape:version="0.92.4 (5da689c313, 2019-01-14)">
  <metadata
     id="metadata56">
    <rdf:RDF>
      <cc:Work
         rdf:about="">
        <dc:format>image/svg+xml</dc:format>
        <dc:type
           rdf:resource="http://purl.org/dc/dcmitype/StillImage" />
        <dc:title></dc:title>
      </cc:Work>
    </rdf:RDF>
  </metadata>
  <sodipodi:namedview
     pagecolor="#ffffff"
     bordercolor="#666666"
     borderopacity="1"
     objecttolerance="10"
     gridtolerance="10"
     guidetolerance="10"
     inkscape:pageopacity="0"
     inkscape:pageshadow="2"
     inkscape:window-width="1920"
     inkscape:window-height="1025"
     id="namedview54"
     showgrid="false"
     inkscape:zoom="0.38"
     inkscape:cx="45.786579"
     inkscape:cy="267.11966"
     inkscape:window-x="-8"
     inkscape:window-y="-8"
     inkscape:window-maximized="1"
     inkscape:current-layer="svg52"
     fit-margin-top="0"
     fit-margin-left="0"
     fit-margin-right="0"
     fit-margin-bottom="0" />
  <defs
     id="defs31">
    <linearGradient
       id="a"
       x2="226.42999"
       gradientUnits="userSpaceOnUse"
       x1="194.28999">
      <stop
         stop-color="#fff"
         offset="0"
         id="stop2" />
      <stop
         stop-color="#fff"
         stop-opacity="0"
         offset="1"
         id="stop4" />
    </linearGradient>
    <linearGradient
       id="c"
       y2="1719"
       gradientUnits="userSpaceOnUse"
       y1="1726.7"
       gradientTransform="matrix(1.9585,0,0,0.51059,0,280)"
       x2="116.15"
       x1="121.74">
      <stop
         stop-color="#ebebe2"
         offset="0"
         id="stop7" />
      <stop
         stop-color="#bcbc8e"
         offset="1"
         id="stop9" />
    </linearGradient>
    <linearGradient
       id="b"
       y2="776.56"
       gradientUnits="userSpaceOnUse"
       y1="794.37"
       gradientTransform="matrix(0.74743,0,0,1.3379,0.25,132)"
       x2="286.70999"
       x1="277.48999">
      <stop
         stop-color="#fdf064"
         offset="0"
         id="stop12" />
      <stop
         stop-color="#c68200"
         offset="1"
         id="stop14" />
    </linearGradient>
    <linearGradient
       id="s"
       y2="1776.3"
       xlink:href="#a"
       y1="1700.8"
       gradientTransform="matrix(13.288,0,0,5.0944,-1573.8,-8691.5)"
       x2="164.78999"
       x1="143.16" />
    <linearGradient
       id="r"
       xlink:href="#b"
       y1="1225.1"
       gradientTransform="matrix(8.2276,0,0,8.2276,-1573.8,-9843.4)"
       x2="0"
       y2="1200.7" />
    <linearGradient
       id="q"
       y2="1634.5"
       xlink:href="#c"
       y1="1696.2"
       gradientTransform="matrix(1.5147,0,0,0.66019,0,140)"
       x2="157.33"
       x1="140.25999" />
    <linearGradient
       id="p"
       y2="1669.3"
       xlink:href="#a"
       y1="1674.5"
       gradientTransform="matrix(12.462,0,0,5.4318,-1573.8,-8691.5)"
       x2="147.69"
       x1="140.17999" />
    <linearGradient
       id="o"
       y2="985.92999"
       xlink:href="#b"
       spreadMethod="reflect"
       y1="1000.9"
       gradientTransform="matrix(7.4647,0,0,9.0685,-1573.8,-8691.5)"
       x2="226.88"
       x1="223.66" />
    <linearGradient
       id="n"
       y2="1247"
       xlink:href="#a"
       y1="1225.9"
       gradientTransform="matrix(8.2276,0,0,8.2276,-1573.8,-9843.4)"
       x2="204.62"
       x1="204.58" />
    <linearGradient
       id="m"
       y2="1493.9"
       xlink:href="#a"
       y1="1437.3"
       gradientTransform="matrix(11.208,0,0,6.0398,-1573.8,-8691.5)"
       x2="182.97"
       x1="196.64999" />
    <linearGradient
       id="e"
       y2="1667"
       xlink:href="#a"
       x2="167.52"
       gradientTransform="matrix(12.462,0,0,5.4318,-1573.8,-8691.5)"
       y1="1674.5"
       x1="175.50999" />
    <linearGradient
       id="d"
       xlink:href="#c"
       gradientTransform="matrix(8.2276,0,0,8.2276,-1573.8,-9843.4)"
       x2="286.48999"
       x1="199.82001" />
    <linearGradient
       id="f"
       y2="1082.9"
       spreadMethod="reflect"
       gradientUnits="userSpaceOnUse"
       x2="211.85001"
       gradientTransform="matrix(9.6757,0,0,6.9965,-1573.8,-7539.6)"
       y1="1137.6"
       x1="205.99001">
      <stop
         stop-color="#895356"
         offset="0"
         id="stop26" />
      <stop
         stop-color="#4c1f1b"
         offset="1"
         id="stop28" />
    </linearGradient>
    <linearGradient
       inkscape:collect="always"
       xlink:href="#c"
       id="linearGradient880"
       gradientTransform="matrix(8.2276,0,0,8.2276,-1573.8,-9843.4)"
       x1="199.82001"
       x2="286.48999" />
  </defs>
  <g
     id="g876"
     transform="matrix(0.32169276,0,0,0.32169276,-1.3554271,-8.3210132e-4)">
    <path
       id="path33"
       d="M 67.06,179.5 504.36,4.58 795.89,179.5 V 296.11 L 358.59,529.33 67.06,296.11 Z"
       inkscape:connector-curvature="0"
       style="fill:url(#f);stroke:#000000;stroke-width:8.2276001" />
    <path
       d="M 790.18,191.01 358.24,411.4 73.21,201.3 l -2.942,73.46 289.44,230.67 427.83,-226.26 2.6445,-88.151 z"
       id="g"
       inkscape:connector-curvature="0"
       style="fill:url(#linearGradient880);stroke:#000000;stroke-width:16.45499992;stroke-opacity:0.19607999" />
    <path
       id="path36"
       d="M 101.78,184.43 503.21,18.62 767.91,181.52 C 716.52,207.7 640.04,244.311 593.38,251.333 384.11,282.826 450.84,143.703 101.77,184.429 Z"
       inkscape:connector-curvature="0"
       style="opacity:0.5;fill:url(#s)" />
    <path
       id="path38"
       d="M 501.64,36.336 374.11,89.815 606.54,231.735 729.96,178.255 501.64,36.335 Z"
       inkscape:connector-curvature="0"
       style="fill:url(#r);stroke:#000000;stroke-width:8.2276001;stroke-opacity:0.4" />
    <use
       id="use40"
       x="0"
       y="0"
       width="308.90109"
       height="274.26697"
       xlink:href="#g"
       style="fill:url(#q);stroke:#000000;stroke-opacity:0.19607999" />
    <path
       id="path42"
       d="m 790.18,191.01 -431.95,220.38 1.4693,94.025 427.84,-226.26 2.6445,-88.151 z"
       inkscape:connector-curvature="0"
       style="fill:url(#e)" />
    <path
       id="path44"
       d="m 358.24,411.51 -285.03,-210.1 -2.942,73.46 289.44,230.67 -1.47,-94.02 z"
       inkscape:connector-curvature="0"
       style="fill:url(#p)" />
    <path
       id="path46"
       d="m 100.38,253.54 82.86,68.498 c -34.75,11.57 -40.71,138.32 -116.61,145.77 12.911,-43.37 13.478,-68.23 14.045,-101.32 -20.003,12.16 -52.346,22.27 -72.348,13.86 55.369,-40.21 61.374,-119.5 92.063,-126.8 z"
       inkscape:connector-curvature="0"
       style="fill:url(#o);stroke:#000000;stroke-width:8.22799969;stroke-linejoin:round" />
    <path
       id="path48"
       d="m 92.237,273.29 c -7.758,5.255 -17.159,36.376 -28.31,58.678 26.18,-25.696 35.785,58.844 61.087,56.723 14.989,-1.2564 24.024,-35.639 31.645,-56.017 7.0566,-18.868 -52.348,-67.562 -64.422,-59.384 z"
       inkscape:connector-curvature="0"
       style="fill:url(#n)" />
    <path
       id="path50"
       d="M 500.57,47.855 397.73,90.021 c 98.386,-30.168 154.3,48.895 210.83,94.617 39.145,31.662 122.04,-7.8845 64.792,-33.939 L 500.572,47.859 Z"
       inkscape:connector-curvature="0"
       style="fill:url(#m)" />
  </g>
</svg>
